svgs/google_chrome.svg

<?xml version="1.0" encoding="UTF-8" standalone="no"?>
<svg
   width="24"
   height="24"
   viewBox="0 0 24 24"
   fill="none"
   version="1.1"
   id="svg10"
   sodipodi:docname="google_chrome.svg"
   inkscape:version="1.2.1 (9c6d41e410, 2022-07-14)"
   xmlns:inkscape="http://www.inkscape.org/namespaces/inkscape"
   xmlns:sodipodi="http://sodipodi.sourceforge.net/DTD/sodipodi-0.dtd"
   xmlns="http://www.w3.org/2000/svg"
   xmlns:svg="http://www.w3.org/2000/svg">
  <defs
     id="defs14" />
  <sodipodi:namedview
     id="namedview12"
     pagecolor="#ffffff"
     bordercolor="#000000"
     borderopacity="0.25"
     inkscape:showpageshadow="2"
     inkscape:pageopacity="0.0"
     inkscape:pagecheckerboard="0"
     inkscape:deskcolor="#d1d1d1"
     showgrid="false"
     inkscape:zoom="39.333333"
     inkscape:cx="5.1355932"
     inkscape:cy="14.567797"
     inkscape:window-width="3072"
     inkscape:window-height="1694"
     inkscape:window-x="-11"
     inkscape:window-y="-11"
     inkscape:window-maximized="1"
     inkscape:current-layer="svg10" />
  <g
     id="g7567"
     transform="translate(-0.0095585)">
    <path
       d="M 6.87871,10.6332 C 7.18066,9.50328 7.8474,8.50457 8.77549,7.79168 9.70303,7.07934 10.8397,6.69287 12.0096,6.69176 h 8.4691 C 19.6262,5.32881 18.4579,4.19163 17.0716,3.37698 15.6859,2.56233 14.1233,2.09467 12.5179,2.01292 10.9125,1.93118 9.311,2.23813 7.84907,2.90821 6.3877,3.57772 5.10928,4.59034 4.12335,5.85986 Z"
       fill="#FFF1C0"
       id="path2"
       style="fill:#000000" />
    <path
       d="M 13.3842,17.1416 C 12.2549,17.4491 11.0548,17.3729 9.97327,16.9252 8.8917,16.477 7.98974,15.683 7.40809,14.667 L 7.40308,14.6698 3.16522,7.32846 c -0.75348,1.42078 -1.1533,3.00224 -1.16498,4.61044 -0.01112,1.6076 0.36479,3.1947 1.0977,4.626 0.73235,1.4319 1.79946,2.6653 3.11069,3.5961 1.31123,0.9309 2.82765,1.532 4.42027,1.7517 z"
       fill="#FFF1C0"
       id="path4"
       style="fill:#000000" />
    <path
       d="m 15.7759,8.25601 c 0.8258,0.82689 1.3557,1.90399 1.507,3.06339 0.1507,1.1595 -0.0851,2.3361 -0.6723,3.3476 L 16.6167,14.6704 12.3849,22 c 1.606,-0.0573 3.1747,-0.501 4.5727,-1.294 1.3974,-0.7929 2.5835,-1.9112 3.4571,-3.2603 0.873,-1.349 1.4085,-2.8888 1.5598,-4.4881 0.1518,-1.6003 -0.0851,-3.21297 -0.6901,-4.70159 z"
       fill="#FFF1C0"
       id="path6"
       style="fill:#000000" />
    <path
       d="m 12.0096,15.7631 c 2.0731,0 3.7535,-1.6805 3.7535,-3.7536 0,-2.07302 -1.6804,-3.75349 -3.7535,-3.75349 -2.07303,0 -3.7535,1.68047 -3.7535,3.75349 0,2.0731 1.68047,3.7536 3.7535,3.7536 z"
       fill="#FFF1C0"
       id="path8"
       style="fill:#000000" />
  </g>
</svg>

<svg width="24" height="24" viewBox="0 0 24 24" fill="none" xmlns="http://www.w3.org/2000/svg">
<path d="M6.87871 10.6332C7.18066 9.50328 7.8474 8.50457 8.77549 7.79168C9.70303 7.07934 10.8397 6.69287 12.0096 6.69176H20.4787C19.6262 5.32881 18.4579 4.19163 17.0716 3.37698C15.6859 2.56233 14.1233 2.09467 12.5179 2.01292C10.9125 1.93118 9.311 2.23813 7.84907 2.90821C6.3877 3.57772 5.10928 4.59034 4.12335 5.85986L6.87871 10.6332Z" fill="#FFF1C0"/>
<path d="M13.3842 17.1416C12.2549 17.4491 11.0548 17.3729 9.97327 16.9252C8.8917 16.477 7.98974 15.683 7.40809 14.667L7.40308 14.6698L3.16522 7.32846C2.41174 8.74924 2.01192 10.3307 2.00024 11.9389C1.98912 13.5465 2.36503 15.1336 3.09794 16.5649C3.83029 17.9968 4.8974 19.2302 6.20863 20.161C7.51986 21.0919 9.03628 21.693 10.6289 21.9127L13.3842 17.1416Z" fill="#FFF1C0"/>
<path d="M15.7759 8.25601C16.6017 9.0829 17.1316 10.16 17.2829 11.3194C17.4336 12.4789 17.1978 13.6555 16.6106 14.667L16.6167 14.6704L12.3849 22C13.9909 21.9427 15.5596 21.499 16.9576 20.706C18.355 19.9131 19.5411 18.7948 20.4147 17.4457C21.2877 16.0967 21.8232 14.5569 21.9745 12.9576C22.1263 11.3573 21.8894 9.74463 21.2844 8.25601H15.7759Z" fill="#FFF1C0"/>
<path d="M12.0096 15.7631C14.0827 15.7631 15.7631 14.0826 15.7631 12.0095C15.7631 9.93648 14.0827 8.25601 12.0096 8.25601C9.93657 8.25601 8.2561 9.93648 8.2561 12.0095C8.2561 14.0826 9.93657 15.7631 12.0096 15.7631Z" fill="#FFF1C0"/>
</svg>
